svgs/google_home.svg

<svg width="192" height="192" viewBox="0 0 192 192" fill="none" xmlns="http://www.w3.org/2000/svg"><path d="M166 150V85.292a12 12 0 0 0-3.558-8.528l-58-57.408c-4.676-4.629-12.207-4.629-16.884 0l-58 57.408A12 12 0 0 0 26 85.292V150c0 6.627 5.373 12 12 12h116c6.627 0 12-5.373 12-12Z" stroke="#000" stroke-width="12"/><path d="M134 130V96L96 58.73 58 96v34h76Z" stroke="#000" stroke-width="12" stroke-linejoin="round"/></svg>

<?xml version="1.0" encoding="UTF-8" standalone="no"?><svg xmlns:android="http://schemas.android.com/apk/res/android" height="192" width="192" xmlns="http://www.w3.org/2000/svg">
  <path d="M166,150V85.292C166,82.088 164.719,79.018 162.442,76.764L104.442,19.355C99.766,14.727 92.234,14.727 87.558,19.355L29.558,76.764C27.281,79.018 26,82.088 26,85.292V150C26,156.627 31.373,162 38,162H154C160.627,162 166,156.627 166,150Z" fill="#000000" fill-opacity="0.0" stroke="#000000" stroke-width="12"/>
  <path d="M134,130V96L96,58.73L58,96V130H134Z" fill="#000000" fill-opacity="0.0" stroke="#000000" stroke-linejoin="round" stroke-width="12"/>
</svg>
